lib/brands/icons/jamstack.svg

<svg xmlns="http://www.w3.org/2000/svg" fill="none" aria-hidden="true" viewBox="0 0 48 48"><g id="jamstack-Icon"><g id="Group"><path id="Vector" fill="#F0047F" d="M24 6C14.0468 6 6 14.0468 6 24C6 33.9532 14.0468 42 24 42C33.9532 42 42 33.9532 42 24V6H24Z"/><path id="Vector_2" fill="white" d="M23.0214 24.9787V38.1007C16.0375 37.7018 10.4158 32.146 9.91308 25.19L9.89941 24.9787H23.0214ZM35.8129 24.9787C35.4472 31.9627 30.3544 37.5843 23.9781 38.0871L23.7845 38.1007V24.9787H35.8129ZM35.8287 12.1714V24.2157H23.7845V12.1714H35.8287Z"/></g></g></svg>

<svg xmlns="http://www.w3.org/2000/svg" fill="none" aria-hidden="true" viewBox="0 0 48 48"><path fill="#F0047F" d="M24 6C14.047 6 6 14.047 6 24s8.047 18 18 18 18-8.047 18-18V6H24Z"/><path fill="#fff" d="M23.021 24.979V38.1c-6.983-.4-12.605-5.955-13.108-12.911l-.014-.211h13.122Zm12.792 0c-.366 6.984-5.459 12.605-11.835 13.108l-.194.014V24.979h12.029Zm.016-12.808v12.045H23.785V12.17h12.044Z"/></svg>
